assets/Footprints/Flat/footprints_flat.svg

<svg width="32" height="32" viewBox="0 0 32 32" fill="none" xmlns="http://www.w3.org/2000/svg">
<path d="M10.4955 2.00907C11.1814 2.08782 11.6735 2.70765 11.5948 3.3935L11.5229 4.01938C11.4442 4.70523 10.8243 5.19739 10.1385 5.11864C9.45265 5.03989 8.9605 4.42006 9.03925 3.73421L9.11111 3.10832C9.18986 2.42247 9.80969 1.93032 10.4955 2.00907Z" fill="#533566"/>
<path d="M15.4346 4.12033C15.6158 3.18786 15.009 2.28543 14.0793 2.1047C13.1495 1.92397 12.2489 2.53338 12.0676 3.46586L11.9035 4.31006C11.7222 5.24254 12.329 6.14497 13.2588 6.3257C14.1886 6.50642 15.0892 5.89701 15.2705 4.96453L15.4346 4.12033Z" fill="#533566"/>
<path d="M13.6597 8.92003C13.6597 5.92003 11.1997 5.50003 8.15972 5.50003C5.11972 5.50003 2.72972 5.88003 2.66972 8.81003V19.92C2.66817 20.6277 2.83355 21.3258 3.15244 21.9576C3.47133 22.5894 3.93473 23.137 4.50501 23.5561C5.07529 23.9752 5.73637 24.2538 6.43456 24.3695C7.13275 24.4851 7.84837 24.4344 8.5233 24.2215C9.19822 24.0086 9.81343 23.6396 10.3189 23.1443C10.8245 22.649 11.206 22.0415 11.4327 21.3711C11.6593 20.7007 11.7247 19.9862 11.6234 19.2858C11.5221 18.5854 11.257 17.9188 10.8497 17.34C10.5258 16.6504 10.4297 15.8756 10.5754 15.1277C10.721 14.3799 11.1007 13.6978 11.6597 13.18C12.288 12.6626 12.7934 12.012 13.1393 11.2752C13.4852 10.5384 13.663 9.73395 13.6597 8.92003Z" fill="#533566"/>
<path d="M8.66995 3.43001C8.66995 2.80593 8.16403 2.30001 7.53995 2.30001C6.91587 2.30001 6.40995 2.80593 6.40995 3.43001V4.00001C6.40995 4.6241 6.91587 5.13001 7.53995 5.13001C8.16403 5.13001 8.66995 4.6241 8.66995 4.00001V3.43001Z" fill="#533566"/>
<path d="M4.87211 2.86055C5.4345 2.79598 5.94302 3.20177 6.00791 3.76691L6.06722 4.28351C6.13211 4.84865 5.7288 5.35914 5.16641 5.42371C4.60401 5.48828 4.09549 5.0825 4.0306 4.51736L3.97129 4.00075C3.9064 3.43561 4.30971 2.92513 4.87211 2.86055Z" fill="#533566"/>
<path d="M2.67075 4.09162L2.66103 4.09398C2.19417 4.20762 1.90783 4.6782 2.02146 5.14506L2.12789 5.58229C2.24152 6.04915 2.71211 6.33549 3.17896 6.22186L3.18868 6.21949C3.65554 6.10586 3.94188 5.63528 3.82824 5.16842L3.72182 4.73119C3.60818 4.26433 3.1376 3.97798 2.67075 4.09162Z" fill="#533566"/>
<path d="M21.9102 10.0137C21.2243 10.0925 20.6045 9.60035 20.5258 8.9145L20.4539 8.28861C20.3751 7.60276 20.8673 6.98293 21.5531 6.90418C22.239 6.82543 22.8588 7.31758 22.9376 8.00343L23.0094 8.62932C23.0882 9.31517 22.596 9.935 21.9102 10.0137Z" fill="#533566"/>
<path d="M16.7884 9.8683C16.9696 10.8008 17.8703 11.4102 18.8001 11.2295C19.7298 11.0487 20.3366 10.1463 20.1554 9.21383L19.9913 8.36963C19.81 7.43715 18.9094 6.82774 17.9796 7.00847C17.0498 7.1892 16.443 8.09163 16.6243 9.02411L16.7884 9.8683Z" fill="#533566"/>
<path d="M18.3903 13.82C18.3903 10.82 20.8603 10.4 23.8903 10.4C26.9203 10.4 29.3303 10.78 29.3903 13.71V24.83C29.3903 26.0235 28.9162 27.1681 28.0723 28.012C27.2284 28.8559 26.0838 29.33 24.8903 29.33C23.6968 29.33 22.5522 28.8559 21.7083 28.012C20.8644 27.1681 20.3903 26.0235 20.3903 24.83C20.3907 23.9044 20.6809 23.0022 21.2203 22.25C21.5427 21.5601 21.6379 20.7857 21.4923 20.0382C21.3468 19.2907 20.968 18.6086 20.4103 18.09C19.7776 17.573 19.268 16.9215 18.9186 16.1829C18.5691 15.4443 18.3887 14.6371 18.3903 13.82Z" fill="#533566"/>
<path d="M23.3906 8.91001C23.3906 9.5341 23.8965 10.04 24.5206 10.04C25.1446 10.04 25.6506 9.5341 25.6506 8.91001V8.34001C25.6506 7.71593 25.1446 7.21001 24.5206 7.21001C23.8965 7.21001 23.3906 7.71593 23.3906 8.34001V8.91001Z" fill="#533566"/>
<path d="M26.8847 10.3118C26.3223 10.2472 25.919 9.73674 25.9839 9.1716L26.0432 8.65499C26.1081 8.08985 26.6166 7.68406 27.179 7.74864C27.7414 7.81321 28.1447 8.32369 28.0798 8.88883L28.0205 9.40544C27.9556 9.97058 27.4471 10.3764 26.8847 10.3118Z" fill="#533566"/>
<path d="M28.8663 11.1089L28.876 11.1112C29.3429 11.2249 29.8135 10.9385 29.9271 10.4717L30.0335 10.0344C30.1472 9.56758 29.8608 9.097 29.394 8.98337L29.3843 8.981C28.9174 8.86737 28.4468 9.15371 28.3332 9.62057L28.2268 10.0578C28.1131 10.5247 28.3995 10.9952 28.8663 11.1089Z" fill="#533566"/>
</svg>

<svg xmlns="http://www.w3.org/2000/svg" width="32" height="32" fill="none"><path fill="#533566" d="M10.495 2.01a1.25 1.25 0 0 1 1.1 1.384l-.072.625a1.25 1.25 0 1 1-2.484-.285l.072-.626a1.25 1.25 0 0 1 1.384-1.099ZM15.435 4.12a1.718 1.718 0 0 0-1.356-2.015c-.93-.181-1.83.428-2.011 1.36l-.165.845a1.717 1.717 0 0 0 1.356 2.016c.93.18 1.83-.429 2.011-1.361l.165-.845Z"/><path fill="#533566" d="M13.66 8.92c0-3-2.46-3.42-5.5-3.42s-5.43.38-5.49 3.31v11.11a4.5 4.5 0 1 0 8.18-2.58 3.59 3.59 0 0 1 .81-4.16 5.49 5.49 0 0 0 2-4.26ZM8.67 3.43a1.13 1.13 0 0 0-2.26 0V4a1.13 1.13 0 1 0 2.26 0v-.57ZM4.872 2.86a1.028 1.028 0 0 1 1.136.907l.06.517a1.028 1.028 0 0 1-.902 1.14 1.028 1.028 0 0 1-1.135-.907l-.06-.516a1.028 1.028 0 0 1 .901-1.14Z"/><path fill="#533566" d="m2.67 4.092-.009.002a.87.87 0 0 0-.64 1.051l.107.437a.87.87 0 0 0 1.051.64l.01-.003a.87.87 0 0 0 .64-1.05l-.107-.438a.87.87 0 0 0-1.051-.64ZM21.91 10.014a1.25 1.25 0 0 1-1.384-1.1l-.072-.625a1.25 1.25 0 1 1 2.484-.286l.071.626a1.25 1.25 0 0 1-1.099 1.385ZM16.788 9.868A1.718 1.718 0 0 0 18.8 11.23a1.718 1.718 0 0 0 1.355-2.015l-.164-.844a1.718 1.718 0 0 0-2.011-1.362 1.717 1.717 0 0 0-1.356 2.016l.164.844Z"/><path fill="#533566" d="M18.39 13.82c0-3 2.47-3.42 5.5-3.42s5.44.38 5.5 3.31v11.12a4.5 4.5 0 1 1-9 0c0-.926.29-1.828.83-2.58a3.599 3.599 0 0 0-.81-4.16 5.5 5.5 0 0 1-2.02-4.27ZM23.39 8.91a1.13 1.13 0 1 0 2.26 0v-.57a1.13 1.13 0 0 0-2.26 0v.57ZM26.885 10.312a1.028 1.028 0 0 1-.901-1.14l.06-.517c.064-.565.573-.97 1.135-.906.562.064.966.575.9 1.14l-.059.516a1.027 1.027 0 0 1-1.135.907ZM28.866 11.109l.01.002a.87.87 0 0 0 1.051-.64l.107-.437a.87.87 0 0 0-.64-1.05l-.01-.003a.87.87 0 0 0-1.05.64l-.107.437a.87.87 0 0 0 .64 1.05Z"/></svg>
